images/3233779.svg

<?xml version="1.0" encoding="UTF-8"?>
<svg xmlns="http://www.w3.org/2000/svg" xmlns:xlink="http://www.w3.org/1999/xlink" width="300pt" height="300pt" viewBox="0 0 300 300" version="1.1">
<defs>
<g>
<symbol overflow="visible" id="glyph0-0">
<path style="stroke:none;" d="M 0.796875 2.828125 L 0.796875 -11.28125 L 8.796875 -11.28125 L 8.796875 2.828125 Z M 1.703125 1.9375 L 7.90625 1.9375 L 7.90625 -10.390625 L 1.703125 -10.390625 Z M 1.703125 1.9375 "/>
</symbol>
<symbol overflow="visible" id="glyph0-1">
<path style="stroke:none;" d="M 1.578125 -11.671875 L 3.703125 -11.671875 L 8.875 -1.90625 L 8.875 -11.671875 L 10.40625 -11.671875 L 10.40625 0 L 8.28125 0 L 3.109375 -9.765625 L 3.109375 0 L 1.578125 0 Z M 1.578125 -11.671875 "/>
</symbol>
<symbol overflow="visible" id="glyph0-2">
<path style="stroke:none;" d="M 6.3125 -10.59375 C 5.164062 -10.59375 4.253906 -10.164062 3.578125 -9.3125 C 2.898438 -8.457031 2.5625 -7.296875 2.5625 -5.828125 C 2.5625 -4.359375 2.898438 -3.195312 3.578125 -2.34375 C 4.253906 -1.488281 5.164062 -1.0625 6.3125 -1.0625 C 7.457031 -1.0625 8.363281 -1.488281 9.03125 -2.34375 C 9.695312 -3.195312 10.03125 -4.359375 10.03125 -5.828125 C 10.03125 -7.296875 9.695312 -8.457031 9.03125 -9.3125 C 8.363281 -10.164062 7.457031 -10.59375 6.3125 -10.59375 Z M 6.3125 -11.875 C 7.945312 -11.875 9.253906 -11.328125 10.234375 -10.234375 C 11.210938 -9.140625 11.703125 -7.671875 11.703125 -5.828125 C 11.703125 -3.984375 11.210938 -2.507812 10.234375 -1.40625 C 9.253906 -0.3125 7.945312 0.234375 6.3125 0.234375 C 4.664062 0.234375 3.351562 -0.3125 2.375 -1.40625 C 1.394531 -2.507812 0.90625 -3.984375 0.90625 -5.828125 C 0.90625 -7.671875 1.394531 -9.140625 2.375 -10.234375 C 3.351562 -11.328125 4.664062 -11.875 6.3125 -11.875 Z M 6.3125 -11.875 "/>
</symbol>
</g>
</defs>
<g id="surface55721">
<rect x="0" y="0" width="300" height="300" style="fill:rgb(100%,100%,100%);fill-opacity:1;stroke:none;"/>
<path style="fill:none;stroke-width:1.2;stroke-linecap:butt;stroke-linejoin:miter;stroke:rgb(0%,0%,0%);stroke-opacity:1;stroke-miterlimit:10;" d="M 30.894531 189.929688 L 66.753906 176.617188 "/>
<path style="fill:none;stroke-width:1.2;stroke-linecap:butt;stroke-linejoin:miter;stroke:rgb(0%,0%,0%);stroke-opacity:1;stroke-miterlimit:10;" d="M 66.753906 176.617188 L 81.480469 188.820312 "/>
<path style="fill:none;stroke-width:1.2;stroke-linecap:butt;stroke-linejoin:miter;stroke:rgb(0%,0%,100%);stroke-opacity:1;stroke-miterlimit:10;" d="M 81.480469 188.820312 L 96.210938 201.019531 "/>
<path style="fill:none;stroke-width:1.2;stroke-linecap:butt;stroke-linejoin:miter;stroke:rgb(0%,0%,0%);stroke-opacity:1;stroke-miterlimit:10;" d="M 75.441406 172.128906 L 87.222656 181.886719 "/>
<path style="fill:none;stroke-width:1.2;stroke-linecap:butt;stroke-linejoin:miter;stroke:rgb(0%,0%,100%);stroke-opacity:1;stroke-miterlimit:10;" d="M 87.222656 181.886719 L 99.007812 191.648438 "/>
<path style="fill:none;stroke-width:1.2;stroke-linecap:butt;stroke-linejoin:miter;stroke:rgb(0%,0%,0%);stroke-opacity:1;stroke-miterlimit:10;" d="M 73.15625 138.910156 L 66.753906 176.617188 "/>
<path style="fill:none;stroke-width:1.2;stroke-linecap:butt;stroke-linejoin:miter;stroke:rgb(0%,0%,100%);stroke-opacity:1;stroke-miterlimit:10;" d="M 96.210938 201.019531 L 114.140625 194.363281 "/>
<path style="fill:none;stroke-width:1.2;stroke-linecap:butt;stroke-linejoin:miter;stroke:rgb(0%,0%,0%);stroke-opacity:1;stroke-miterlimit:10;" d="M 114.140625 194.363281 L 132.070312 187.710938 "/>
<path style=" stroke:none;fill-rule:nonzero;fill:rgb(100%,100%,100%);fill-opacity:1;" d="M 90.210938 191.519531 L 102.210938 191.519531 L 102.210938 210.519531 L 90.210938 210.519531 Z M 90.210938 191.519531 "/>
<g style="fill:rgb(0%,0%,100%);fill-opacity:1;">
  <use xlink:href="#glyph0-1" x="90.210938" y="206.371094"/>
</g>
<path style="fill:none;stroke-width:1.2;stroke-linecap:butt;stroke-linejoin:miter;stroke:rgb(0%,0%,0%);stroke-opacity:1;stroke-miterlimit:10;" d="M 132.070312 187.710938 L 161.527344 212.109375 "/>
<path style="fill:none;stroke-width:1.2;stroke-linecap:butt;stroke-linejoin:miter;stroke:rgb(0%,0%,0%);stroke-opacity:1;stroke-miterlimit:10;" d="M 140.757812 183.21875 L 164.320312 202.738281 "/>
<path style="fill:none;stroke-width:1.2;stroke-linecap:butt;stroke-linejoin:miter;stroke:rgb(0%,0%,0%);stroke-opacity:1;stroke-miterlimit:10;" d="M 138.472656 150 L 132.070312 187.710938 "/>
<path style="fill:none;stroke-width:1.2;stroke-linecap:butt;stroke-linejoin:miter;stroke:rgb(0%,0%,0%);stroke-opacity:1;stroke-miterlimit:10;" d="M 161.527344 212.109375 L 179.457031 205.457031 "/>
<path style="fill:none;stroke-width:1.2;stroke-linecap:butt;stroke-linejoin:miter;stroke:rgb(0%,0%,100%);stroke-opacity:1;stroke-miterlimit:10;" d="M 179.457031 205.457031 L 197.386719 198.800781 "/>
<path style="fill:none;stroke-width:1.2;stroke-linecap:butt;stroke-linejoin:miter;stroke:rgb(0%,0%,100%);stroke-opacity:1;stroke-miterlimit:10;" d="M 197.386719 198.800781 L 200.585938 179.945312 "/>
<path style="fill:none;stroke-width:1.2;stroke-linecap:butt;stroke-linejoin:miter;stroke:rgb(0%,0%,0%);stroke-opacity:1;stroke-miterlimit:10;" d="M 200.585938 179.945312 L 203.789062 161.089844 "/>
<path style="fill:none;stroke-width:1.2;stroke-linecap:butt;stroke-linejoin:miter;stroke:rgb(0%,0%,100%);stroke-opacity:1;stroke-miterlimit:10;" d="M 189.152344 193.523438 L 191.714844 178.441406 "/>
<path style="fill:none;stroke-width:1.2;stroke-linecap:butt;stroke-linejoin:miter;stroke:rgb(0%,0%,0%);stroke-opacity:1;stroke-miterlimit:10;" d="M 191.714844 178.441406 L 194.277344 163.355469 "/>
<path style=" stroke:none;fill-rule:nonzero;fill:rgb(100%,100%,100%);fill-opacity:1;" d="M 191.386719 189.300781 L 203.386719 189.300781 L 203.386719 208.300781 L 191.386719 208.300781 Z M 191.386719 189.300781 "/>
<g style="fill:rgb(0%,0%,100%);fill-opacity:1;">
  <use xlink:href="#glyph0-1" x="191.386719" y="204.152344"/>
</g>
<path style="fill:none;stroke-width:1.2;stroke-linecap:butt;stroke-linejoin:miter;stroke:rgb(0%,0%,0%);stroke-opacity:1;stroke-miterlimit:10;" d="M 203.789062 161.089844 L 189.0625 148.890625 "/>
<path style="fill:none;stroke-width:1.2;stroke-linecap:butt;stroke-linejoin:miter;stroke:rgb(0%,0%,100%);stroke-opacity:1;stroke-miterlimit:10;" d="M 189.0625 148.890625 L 174.332031 136.691406 "/>
<path style="fill:none;stroke-width:1.2;stroke-linecap:butt;stroke-linejoin:miter;stroke:rgb(0%,0%,0%);stroke-opacity:1;stroke-miterlimit:10;" d="M 203.789062 161.089844 L 221.71875 154.4375 "/>
<path style="fill:none;stroke-width:1.2;stroke-linecap:butt;stroke-linejoin:miter;stroke:rgb(0%,0%,100%);stroke-opacity:1;stroke-miterlimit:10;" d="M 221.71875 154.4375 L 239.648438 147.78125 "/>
<path style="fill:none;stroke-width:1.2;stroke-linecap:butt;stroke-linejoin:miter;stroke:rgb(0%,0%,100%);stroke-opacity:1;stroke-miterlimit:10;" d="M 174.332031 136.691406 L 156.402344 143.34375 "/>
<path style="fill:none;stroke-width:1.2;stroke-linecap:butt;stroke-linejoin:miter;stroke:rgb(0%,0%,0%);stroke-opacity:1;stroke-miterlimit:10;" d="M 156.402344 143.34375 L 138.472656 150 "/>
<path style="fill:none;stroke-width:1.2;stroke-linecap:butt;stroke-linejoin:miter;stroke:rgb(0%,0%,100%);stroke-opacity:1;stroke-miterlimit:10;" d="M 173.878906 146.460938 L 159.535156 151.78125 "/>
<path style="fill:none;stroke-width:1.2;stroke-linecap:butt;stroke-linejoin:miter;stroke:rgb(0%,0%,0%);stroke-opacity:1;stroke-miterlimit:10;" d="M 159.535156 151.78125 L 145.191406 157.105469 "/>
<path style=" stroke:none;fill-rule:nonzero;fill:rgb(100%,100%,100%);fill-opacity:1;" d="M 168.332031 127.191406 L 180.332031 127.191406 L 180.332031 146.191406 L 168.332031 146.191406 Z M 168.332031 127.191406 "/>
<g style="fill:rgb(0%,0%,100%);fill-opacity:1;">
  <use xlink:href="#glyph0-1" x="168.332031" y="142.042969"/>
</g>
<path style="fill:none;stroke-width:1.2;stroke-linecap:butt;stroke-linejoin:miter;stroke:rgb(0%,0%,0%);stroke-opacity:1;stroke-miterlimit:10;" d="M 138.472656 150 L 123.746094 137.800781 "/>
<path style="fill:none;stroke-width:1.2;stroke-linecap:butt;stroke-linejoin:miter;stroke:rgb(0%,0%,100%);stroke-opacity:1;stroke-miterlimit:10;" d="M 123.746094 137.800781 L 109.015625 125.597656 "/>
<path style="fill:none;stroke-width:1.2;stroke-linecap:butt;stroke-linejoin:miter;stroke:rgb(0%,0%,100%);stroke-opacity:1;stroke-miterlimit:10;" d="M 109.015625 125.597656 L 91.085938 132.253906 "/>
<path style="fill:none;stroke-width:1.2;stroke-linecap:butt;stroke-linejoin:miter;stroke:rgb(0%,0%,0%);stroke-opacity:1;stroke-miterlimit:10;" d="M 91.085938 132.253906 L 73.15625 138.910156 "/>
<path style="fill:none;stroke-width:1.2;stroke-linecap:butt;stroke-linejoin:miter;stroke:rgb(0%,0%,100%);stroke-opacity:1;stroke-miterlimit:10;" d="M 109.015625 125.597656 L 112.21875 106.746094 "/>
<path style="fill:none;stroke-width:1.2;stroke-linecap:butt;stroke-linejoin:miter;stroke:rgb(0%,0%,0%);stroke-opacity:1;stroke-miterlimit:10;" d="M 112.21875 106.746094 L 115.421875 87.890625 "/>
<path style=" stroke:none;fill-rule:nonzero;fill:rgb(100%,100%,100%);fill-opacity:1;" d="M 103.015625 116.097656 L 115.015625 116.097656 L 115.015625 135.097656 L 103.015625 135.097656 Z M 103.015625 116.097656 "/>
<g style="fill:rgb(0%,0%,100%);fill-opacity:1;">
  <use xlink:href="#glyph0-1" x="103.015625" y="130.949219"/>
</g>
<path style="fill:none;stroke-width:1.2;stroke-linecap:butt;stroke-linejoin:miter;stroke:rgb(0%,0%,0%);stroke-opacity:1;stroke-miterlimit:10;" d="M 76.027344 135.441406 L 61.300781 123.242188 "/>
<path style="fill:none;stroke-width:1.2;stroke-linecap:butt;stroke-linejoin:miter;stroke:rgb(100%,0%,0%);stroke-opacity:1;stroke-miterlimit:10;" d="M 61.300781 123.242188 L 46.570312 111.042969 "/>
<path style="fill:none;stroke-width:1.2;stroke-linecap:butt;stroke-linejoin:miter;stroke:rgb(0%,0%,0%);stroke-opacity:1;stroke-miterlimit:10;" d="M 70.285156 142.375 L 55.558594 130.175781 "/>
<path style="fill:none;stroke-width:1.2;stroke-linecap:butt;stroke-linejoin:miter;stroke:rgb(100%,0%,0%);stroke-opacity:1;stroke-miterlimit:10;" d="M 55.558594 130.175781 L 40.832031 117.972656 "/>
<path style=" stroke:none;fill-rule:nonzero;fill:rgb(100%,100%,100%);fill-opacity:1;" d="M 30.703125 105.007812 L 43.703125 105.007812 L 43.703125 124.007812 L 30.703125 124.007812 Z M 30.703125 105.007812 "/>
<g style="fill:rgb(100%,0%,0%);fill-opacity:1;">
  <use xlink:href="#glyph0-2" x="30.703125" y="119.859375"/>
</g>
<path style="fill:none;stroke-width:1.2;stroke-linecap:butt;stroke-linejoin:miter;stroke:rgb(0%,0%,100%);stroke-opacity:1;stroke-miterlimit:10;" d="M 239.648438 147.78125 L 254.378906 159.980469 "/>
<path style="fill:none;stroke-width:1.2;stroke-linecap:butt;stroke-linejoin:miter;stroke:rgb(0%,0%,0%);stroke-opacity:1;stroke-miterlimit:10;" d="M 254.378906 159.980469 L 269.105469 172.183594 "/>
<path style="fill:none;stroke-width:1.2;stroke-linecap:butt;stroke-linejoin:miter;stroke:rgb(0%,0%,100%);stroke-opacity:1;stroke-miterlimit:10;" d="M 239.648438 147.78125 L 242.851562 128.925781 "/>
<path style="fill:none;stroke-width:1.2;stroke-linecap:butt;stroke-linejoin:miter;stroke:rgb(0%,0%,0%);stroke-opacity:1;stroke-miterlimit:10;" d="M 242.851562 128.925781 L 246.054688 110.070312 "/>
<path style=" stroke:none;fill-rule:nonzero;fill:rgb(100%,100%,100%);fill-opacity:1;" d="M 233.648438 138.28125 L 245.648438 138.28125 L 245.648438 157.28125 L 233.648438 157.28125 Z M 233.648438 138.28125 "/>
<g style="fill:rgb(0%,0%,100%);fill-opacity:1;">
  <use xlink:href="#glyph0-1" x="233.648438" y="153.132812"/>
</g>
</g>
</svg>

<svg xmlns="http://www.w3.org/2000/svg" xmlns:xlink="http://www.w3.org/1999/xlink" width="300pt" height="300pt" viewBox="0 0 300 300"><defs><symbol overflow="visible"><path d="M.797 2.828v-14.11h8V2.83zm.906-.89h6.203v-12.33H1.703zm0 0"/></symbol><symbol overflow="visible" id="a"><path d="M1.578-11.672h2.125l5.172 9.766v-9.766h1.53V0H8.282L3.11-9.766V0H1.577zm0 0"/></symbol><symbol overflow="visible" id="b"><path d="M6.313-10.594c-1.15 0-2.06.43-2.735 1.28-.68.857-1.015 2.017-1.015 3.486 0 1.47.335 2.633 1.015 3.484.676.856 1.586 1.28 2.735 1.28 1.144.002 2.05-.424 2.718-1.28.665-.85 1-2.015 1-3.484 0-1.47-.335-2.63-1-3.484-.667-.852-1.573-1.282-2.717-1.282zm0-1.28c1.632 0 2.94.546 3.92 1.64.978 1.093 1.47 2.562 1.47 4.406 0 1.844-.492 3.32-1.47 4.422-.98 1.093-2.288 1.64-3.92 1.64-1.65 0-2.96-.546-3.938-1.64-.98-1.102-1.47-2.578-1.47-4.422 0-1.844.49-3.313 1.47-4.406.977-1.094 2.29-1.64 3.938-1.64zm0 0"/></symbol></defs><g><path fill="#fff" d="M0 0h300v300H0z"/><path d="M30.895 189.93l35.86-13.313M66.754 176.617L81.48 188.82" stroke-width="1.2" stroke="#000" stroke-miterlimit="10" fill="none"/><path d="M81.48 188.82l14.73 12.2" stroke-width="1.2" stroke="#00f" stroke-miterlimit="10" fill="none"/><path d="M75.44 172.13l11.783 9.757" stroke-width="1.2" stroke="#000" stroke-miterlimit="10" fill="none"/><path d="M87.223 181.887l11.785 9.76" stroke-width="1.2" stroke="#00f" stroke-miterlimit="10" fill="none"/><path d="M73.156 138.91l-6.402 37.707" stroke-width="1.2" stroke="#000" stroke-miterlimit="10" fill="none"/><path d="M96.21 201.02l17.93-6.657" stroke-width="1.2" stroke="#00f" stroke-miterlimit="10" fill="none"/><path d="M114.14 194.363l17.93-6.652" stroke-width="1.2" stroke="#000" stroke-miterlimit="10" fill="none"/><path d="M90.21 191.52h12v19h-12zm0 0" fill="#fff"/><use xlink:href="#a" x="90.211" y="206.371" fill="#00f"/><path d="M132.07 187.71l29.457 24.4M140.758 183.22l23.562 19.518M138.473 150l-6.403 37.71M161.527 212.11l17.93-6.653" stroke-width="1.2" stroke="#000" stroke-miterlimit="10" fill="none"/><path d="M179.457 205.457l17.93-6.656M197.387 198.8l3.2-18.855" stroke-width="1.2" stroke="#00f" stroke-miterlimit="10" fill="none"/><path d="M200.586 179.945l3.203-18.855" stroke-width="1.2" stroke="#000" stroke-miterlimit="10" fill="none"/><path d="M189.152 193.523l2.563-15.082" stroke-width="1.2" stroke="#00f" stroke-miterlimit="10" fill="none"/><path d="M191.715 178.44l2.562-15.085" stroke-width="1.2" stroke="#000" stroke-miterlimit="10" fill="none"/><path d="M191.387 189.3h12v19h-12zm0 0" fill="#fff"/><use xlink:href="#a" x="191.387" y="204.152" fill="#00f"/><path d="M203.79 161.09l-14.727-12.2" stroke-width="1.2" stroke="#000" stroke-miterlimit="10" fill="none"/><path d="M189.063 148.89l-14.73-12.2" stroke-width="1.2" stroke="#00f" stroke-miterlimit="10" fill="none"/><path d="M203.79 161.09l17.93-6.653" stroke-width="1.2" stroke="#000" stroke-miterlimit="10" fill="none"/><path d="M221.72 154.438l17.928-6.657M174.332 136.69l-17.93 6.654" stroke-width="1.2" stroke="#00f" stroke-miterlimit="10" fill="none"/><path d="M156.402 143.344L138.472 150" stroke-width="1.2" stroke="#000" stroke-miterlimit="10" fill="none"/><path d="M173.88 146.46l-14.345 5.32" stroke-width="1.2" stroke="#00f" stroke-miterlimit="10" fill="none"/><path d="M159.535 151.78l-14.344 5.325" stroke-width="1.2" stroke="#000" stroke-miterlimit="10" fill="none"/><path d="M168.332 127.19h12v19h-12zm0 0" fill="#fff"/><use xlink:href="#a" x="168.332" y="142.043" fill="#00f"/><path d="M138.473 150l-14.727-12.2" stroke-width="1.2" stroke="#000" stroke-miterlimit="10" fill="none"/><path d="M123.746 137.8l-14.73-12.202M109.016 125.598l-17.93 6.656" stroke-width="1.2" stroke="#00f" stroke-miterlimit="10" fill="none"/><path d="M91.086 132.254l-17.93 6.656" stroke-width="1.2" stroke="#000" stroke-miterlimit="10" fill="none"/><path d="M109.016 125.598l3.203-18.852" stroke-width="1.2" stroke="#00f" stroke-miterlimit="10" fill="none"/><path d="M112.22 106.746l3.202-18.855" stroke-width="1.2" stroke="#000" stroke-miterlimit="10" fill="none"/><path d="M103.016 116.098h12v19h-12zm0 0" fill="#fff"/><use xlink:href="#a" x="103.016" y="130.949" fill="#00f"/><path d="M76.027 135.44L61.3 123.243" stroke-width="1.2" stroke="#000" stroke-miterlimit="10" fill="none"/><path d="M61.3 123.242l-14.73-12.2" stroke-width="1.2" stroke="#f00" stroke-miterlimit="10" fill="none"/><path d="M70.285 142.375l-14.726-12.2" stroke-width="1.2" stroke="#000" stroke-miterlimit="10" fill="none"/><path d="M55.56 130.176L40.83 117.973" stroke-width="1.2" stroke="#f00" stroke-miterlimit="10" fill="none"/><path d="M30.703 105.008h13v19h-13zm0 0" fill="#fff"/><use xlink:href="#b" x="30.703" y="119.859" fill="#f00"/><path d="M239.648 147.78l14.73 12.2" stroke-width="1.2" stroke="#00f" stroke-miterlimit="10" fill="none"/><path d="M254.38 159.98l14.725 12.204" stroke-width="1.2" stroke="#000" stroke-miterlimit="10" fill="none"/><path d="M239.648 147.78l3.204-18.854" stroke-width="1.2" stroke="#00f" stroke-miterlimit="10" fill="none"/><path d="M242.852 128.926l3.203-18.856" stroke-width="1.2" stroke="#000" stroke-miterlimit="10" fill="none"/><path d="M233.648 138.28h12v19h-12zm0 0" fill="#fff"/><use xlink:href="#a" x="233.648" y="153.133" fill="#00f"/></g></svg>
